images/client-logos/lockheed-martin.svg

<svg fill="none" height="70" viewBox="0 0 219 70" width="219" xmlns="http://www.w3.org/2000/svg"><g fill="#e3e8f0"><path clip-rule="evenodd" d="m3.05273 9.00004h5.13021l-2.01491 9.53176h4.76487l-.7329 3.6625h-9.899341zm25.65747-.18369c4.5832 0 6.2327 2.74995 5.3161 6.78185-.9166 4.032-3.6644 6.7819-8.2476 6.7819-4.3995 0-6.0491-2.7499-5.1325-6.7819.7351-4.0319 3.6668-6.78185 8.064-6.78185zm-2.1987 10.26045c.9166 0 1.468-.5471 2.1987-3.4807.5514-2.9338.1838-3.485-.7328-3.485-.733 0-1.4681.5512-2.015 3.485-.7349 2.9357-.1837 3.4807.5491 3.4807zm29.1425-1.8311c-.733 3.6687-3.8481 5.1323-7.1473 5.1323-4.5832 0-6.0489-2.75-5.1323-6.7819.7328-4.2157 3.6644-6.78189 8.0639-6.78189 3.299 0 5.8653 1.28209 4.9486 5.13229h-4.7649c.3676-1.47-.1837-1.8354-.7328-1.8354-1.468 0-1.8334 1.47-2.1986 3.485-.5514 2.0148-.733 3.4807.549 3.4807.7328 0 1.2842-.3632 1.6496-1.8311zm13.0146-8.24566h4.9486l-1.1005 5.67946 3.8504-5.67946h5.4977l-4.7647 6.23066 2.3824 6.9636h-5.4999l-1.8332-5.8631-1.2821 5.8631h-4.9486zm29.3262 8.24566h-2.2008l-.9166 4.9486h-5.1323l2.7499-13.19426h5.1323l-.9167 4.39736h2.1987l.9188-4.39736h5.1299l-2.75 13.19426h-5.132zm18.6942-8.24566h9.899l-.735 3.48076h-4.948l-.368 1.4678h4.583l-.733 3.2971h-4.583l-.365 1.47h5.132l-.735 3.4786h-10.079zm21.811 0h9.897l-.732 3.48076h-4.949l-.368 1.4678h4.584l-.55 3.2971h-4.766l-.184 1.47h5.134l-.735 3.4786h-10.081zm21.812 0h6.23c5.133 0 6.234 2.93376 5.501 6.78186-.918 3.8483-4.033 6.4145-8.065 6.4145h-6.414zm2.931 10.07676h.549c.917 0 1.466-.1838 1.834-.7308.548-.5512.733-1.47 1.1-2.7499.183-1.2863.366-2.1987 0-2.7499-.184-.5513-.548-.7351-1.468-.7351h-.365z" fill-rule="evenodd"/><path d="m26.1453 48.9978 3.8485-9.3481-2.0148 9.3481h4.397l2.7496-13.1942h-7.1466l-3.117 7.8781.1829-7.8781h-7.1467l-2.7512 13.1942h4.4003l2.0149-9.3481-.1846 9.3481z"/><path d="m93.9625 39.468h3.117l-2.0165 9.5298h5.313l2.015-9.5298h3.118l.735-3.6644h-11.5484z"/><path d="m122.918 35.8036h-5.127l-2.751 13.1942h5.133z"/><path d="m141.43 35.8036h-6.23l-2.75 13.1942h4.216c.643-3.15 1.004-4.916 1.647-8.066h.185l.918 8.066h6.23l2.751-13.1942h-4.032l-1.831 7.8781z"/><g clip-rule="evenodd" fill-rule="evenodd"><path d="m49.4254 35.8036h6.598l1.4646 13.1964h-5.3146l-.1846-2.1987h-3.6639l-.9193 2.1987h-4.9439zm2.5618 2.9338v4.9443h-2.1994z"/><path d="m71.4172 35.8036h7.7018c2.7446 0 4.2158.9145 3.6639 3.297-.3674 1.6516-1.1021 2.7499-3.3015 3.1175v.1837c1.2867 0 1.8353.5512 1.8353 1.6474.0831.5102.0106 1.1764-.073 1.9446-.097.892-.209 1.9215-.1099 3.004h-4.9489c-.1845-1.0983 0-2.7499.1829-3.8482 0-.5513-.3674-.9188-1.1022-.9188h-.7298l-.9193 4.7649h-5.1318zm6.2306 4.2137c-.1828.9145-.911 1.282-2.0148 1.282v-.0021h-.369l.5519-2.3826h.3673c1.0972 0 1.6491.1839 1.4646 1.1027z"/><path d="m218.876 27.7599h-29.326c3.848-14.4803 7.329-26.759961 7.329-26.759961s-13.196 14.112861-24.928 26.759961h-116.2038c-.7298 0-.7298.3676 0 .3676.3674 0 114.0048 2.015 114.0048 2.015-9.165 9.7133-14.114 15.2131-14.293 15.397-.368.3675 0 .5512.364.1837.183-.1837 6.786-6.2349 16.128-15.5807l14.482.1836c-.92 4.2157-1.648 8.064-2.75 12.6472-17.778 9.5318-46.736 25.1105-46.736 25.1105-.368.1837-.183.5512.184.3674.183-.1837 27.125-13.7475 46-23.2793-3.112 14.1129-5.128 23.8243-5.128 24.008-.183.1838.184.3675.369 0 0-.1837 2.744-9.8951 6.78-24.9267 16.859-8.6109 33.724-16.4933 33.724-16.4933zm-44.541 0c8.796-8.6151 16.129-15.5807 16.129-15.5807s-1.282 6.0489-3.48 15.5807zm14.483 2.5684 17.593.3654s-8.797 4.7647-20.712 11.1792c1.101-4.0319 2.015-7.5127 3.119-11.5446z"/></g></g></svg>

<svg width="219" height="70" viewBox="0 0 219 70" fill="none" xmlns="http://www.w3.org/2000/svg">
<path fill-rule="evenodd" clip-rule="evenodd" d="M3.05273 9.00004H8.18294L6.16803 18.5318H10.9329L10.2 22.1943H0.300659L3.05273 9.00004ZM28.7102 8.81635C33.2934 8.81635 34.9429 11.5663 34.0263 15.5982C33.1097 19.6302 30.3619 22.3801 25.7787 22.3801C21.3792 22.3801 19.7296 19.6302 20.6462 15.5982C21.3813 11.5663 24.313 8.81635 28.7102 8.81635ZM26.5115 19.0768C27.4281 19.0768 27.9795 18.5297 28.7102 15.5961C29.2616 12.6623 28.894 12.1111 27.9774 12.1111C27.2444 12.1111 26.5093 12.6623 25.9624 15.5961C25.2275 18.5318 25.7787 19.0768 26.5115 19.0768ZM55.654 17.2457C54.921 20.9144 51.8059 22.378 48.5067 22.378C43.9235 22.378 42.4578 19.628 43.3744 15.5961C44.1072 11.3804 47.0388 8.81421 51.4383 8.81421C54.7373 8.81421 57.3036 10.0963 56.3869 13.9465H51.622C51.9896 12.4765 51.4383 12.1111 50.8892 12.1111C49.4212 12.1111 49.0558 13.5811 48.6906 15.5961C48.1392 17.6109 47.9576 19.0768 49.2396 19.0768C49.9724 19.0768 50.5238 18.7136 50.8892 17.2457H55.654ZM68.6686 9.00004H73.6172L72.5167 14.6795L76.3671 9.00004H81.8648L77.1001 15.2307L79.4825 22.1943H73.9826L72.1494 16.3312L70.8673 22.1943H65.9187L68.6686 9.00004ZM97.9948 17.2457H95.794L94.8774 22.1943H89.7451L92.495 9.00004H97.6273L96.7106 13.3974H98.9093L99.8281 9.00004H104.958L102.208 22.1943H97.076L97.9948 17.2457ZM116.689 9.00004H126.588L125.853 12.4808H120.905L120.537 13.9486H125.12L124.387 17.2457H119.804L119.439 18.7157H124.571L123.836 22.1943H113.757L116.689 9.00004ZM138.5 9.00004H148.397L147.665 12.4808H142.716L142.348 13.9486H146.932L146.382 17.2457H141.616L141.432 18.7157H146.566L145.831 22.1943H135.75L138.5 9.00004ZM160.312 9.00004H166.542C171.675 9.00004 172.776 11.9338 172.043 15.7819C171.125 19.6302 168.01 22.1964 163.978 22.1964H157.564L160.312 9.00004ZM163.243 19.0768H163.792C164.709 19.0768 165.258 18.893 165.626 18.346C166.174 17.7948 166.359 16.876 166.726 15.5961C166.909 14.3098 167.092 13.3974 166.726 12.8462C166.542 12.2949 166.178 12.1111 165.258 12.1111H164.893L163.243 19.0768Z" fill="#E3E8F0"/>
<path d="M26.1453 48.9978L29.9938 39.6497L27.979 48.9978H32.376L35.1256 35.8036H27.979L24.862 43.6817L25.0449 35.8036H17.8982L15.147 48.9978H19.5473L21.5622 39.6497L21.3776 48.9978H26.1453Z" fill="#E3E8F0"/>
<path d="M93.9625 39.468H97.0795L95.063 48.9978H100.376L102.391 39.468H105.509L106.244 35.8036H94.6956L93.9625 39.468Z" fill="#E3E8F0"/>
<path d="M122.918 35.8036H117.791L115.04 48.9978H120.173L122.918 35.8036Z" fill="#E3E8F0"/>
<path d="M141.43 35.8036H135.2L132.45 48.9978H136.666C137.309 45.8478 137.67 44.0818 138.313 40.9318H138.498L139.416 48.9978H145.646L148.397 35.8036H144.365L142.534 43.6817L141.43 35.8036Z" fill="#E3E8F0"/>
<path fill-rule="evenodd" clip-rule="evenodd" d="M49.4254 35.8036H56.0234L57.488 49H52.1734L51.9888 46.8013H48.3249L47.4056 49H42.4617L49.4254 35.8036ZM51.9872 38.7374V43.6817H49.7878L51.9872 38.7374Z" fill="#E3E8F0"/>
<path fill-rule="evenodd" clip-rule="evenodd" d="M71.4172 35.8036H79.119C81.8636 35.8036 83.3348 36.7181 82.7829 39.1006C82.4155 40.7522 81.6808 41.8505 79.4814 42.2181V42.4018C80.7681 42.4018 81.3167 42.953 81.3167 44.0492C81.3998 44.5594 81.3273 45.2256 81.2437 45.9938C81.1467 46.8858 81.0347 47.9153 81.1338 48.9978H76.1849C76.0004 47.8995 76.1849 46.2479 76.3678 45.1496C76.3678 44.5983 76.0004 44.2308 75.2656 44.2308H74.5358L73.6165 48.9957H68.4847L71.4172 35.8036ZM77.6478 40.0173C77.465 40.9318 76.7368 41.2993 75.633 41.2993V41.2972H75.264L75.8159 38.9146H76.1832C77.2804 38.9146 77.8323 39.0985 77.6478 40.0173Z" fill="#E3E8F0"/>
<path fill-rule="evenodd" clip-rule="evenodd" d="M218.876 27.7599H189.55C193.398 13.2796 196.879 0.999939 196.879 0.999939C196.879 0.999939 183.683 15.1128 171.951 27.7599H55.7472C55.0174 27.7599 55.0174 28.1275 55.7472 28.1275C56.1146 28.1275 169.752 30.1425 169.752 30.1425C160.587 39.8558 155.638 45.3556 155.459 45.5395C155.091 45.907 155.459 46.0907 155.823 45.7232C156.006 45.5395 162.609 39.4883 171.951 30.1425L186.433 30.3261C185.513 34.5418 184.785 38.3901 183.683 42.9733C165.905 52.5051 136.947 68.0838 136.947 68.0838C136.579 68.2675 136.764 68.635 137.131 68.4512C137.314 68.2675 164.256 54.7037 183.131 45.1719C180.019 59.2848 178.003 68.9962 178.003 69.1799C177.82 69.3637 178.187 69.5474 178.372 69.1799C178.372 68.9962 181.116 59.2848 185.152 44.2532C202.011 35.6423 218.876 27.7599 218.876 27.7599ZM174.335 27.7599C183.131 19.1448 190.464 12.1792 190.464 12.1792C190.464 12.1792 189.182 18.2281 186.984 27.7599H174.335ZM188.818 30.3283L206.411 30.6937C206.411 30.6937 197.614 35.4584 185.699 41.8729C186.8 37.841 187.714 34.3602 188.818 30.3283Z" fill="#E3E8F0"/>
</svg>
